components/Company/logos/logo-elastic.svg

<svg height="140" viewBox="0 0 400 140" width="400" xmlns="http://www.w3.org/2000/svg"><g fill="none" transform="translate(66 24)"><path d="m92 48.2258065c0-7.7317488-4.7827557-14.5263158-11.9763314-17.1426146.3110736-1.640068.4666104-3.2801359.4666104-4.959253 0-14.4091681-11.6652579-26.1239389-25.9746408-26.1239389-8.3989856 0-16.1758242 4.02207131-21.0752325 10.8166384-2.4108199-1.87436336-5.3660185-2.88964349-8.4378698-2.88964349-7.6213017 0-13.8038884 6.20882849-13.8038884 13.86247879 0 1.6791171.3110735 3.319185.8554522 4.8421052-7.15469142 2.5772496-12.0540997 9.4889644-12.0540997 17.1816639 0 7.7707979 4.8216399 14.565365 12.0152156 17.1816638-.3110736 1.6010187-.4666104 3.2801358-.4666104 4.959253 0 14.3701188 11.6263737 26.0458404 25.9357566 26.0458404 8.3989856 0 16.1758242-4.0611205 21.0363483-10.8556876 2.4108199 1.9134126 5.3660186 2.9677419 8.4378698 2.9677419 7.6213018 0 13.8038884-6.2088285 13.8038884-13.8624787 0-1.6791172-.3110735-3.3191851-.8554522-4.8421053 7.1546914-2.5772496 12.0929839-9.4889644 12.0929839-17.1816638" fill="#fff"/><path d="m35.9453125 39.821089 20.234375 9.178911 20.390625-17.8133103c.3125-1.4779602.4296875-2.9170268.4296875-4.4727744 0-12.5237684-10.234375-22.7139153-22.8125-22.7139153-7.5390625 0-14.53125 3.69490061-18.7890625 9.8789974l-3.3984375 17.5410545z" fill="#fed10a"/><path d="m15.4282007 60.8141136c-.3114187 1.4716007-.4282007 2.9819277-.4282007 4.5309811 0 12.5086058 10.2378893 22.6549053 22.8114187 22.6549053 7.5519031 0 14.5977509-3.7177281 18.8408304-9.9139415l3.3477509-17.3881239-4.4766436-8.5197935-20.2422145-9.1781411z" fill="#24bbb1"/><path d="m14.68 25.7130435 14.2 3.2869565 3.12-15.7695652c-1.92-1.4478261-4.32-2.2304348-6.8-2.2304348-6.16 0-11.2 4.8913043-11.2 10.9565217 0 1.2913044.24 2.5826087.68 3.7565218" fill="#ef5098"/><path d="m14.4013333 29c-6.1093333 2.046133-10.4013333 8.027137-10.4013333 14.5983718 0 6.4138399 3.90533333 12.119403 9.744 14.4016282l19.256-17.7069199-3.5186667-7.6729987z" fill="#17a8e0"/><path d="m60 78.7304348c1.8552339 1.4478261 4.0890869 2.2695652 6.3986637 2.2695652 5.830735 0 10.6013363-4.8913043 10.6013363-10.9565217 0-1.3304348-.2271715-2.6217392-.6436526-3.7956522l-13.403118-3.2478261z" fill="#93c83e"/><path d="m63.0551181 59.4192673 15.3543307 3.5807327c6.2598425-2.046133 10.5905512-8.027137 10.5905512-14.6377205 0-6.3744912-3.976378-12.119403-9.9212598-14.3622795l-20.0787402 17.5888738z" fill="#0779a1"/><g fill="#000"><path d="m128.964072 64.446934 1.829341-.1945755.116767 3.735849c-4.826348.6615567-8.952096 1.0117925-12.377246 1.0117925-4.553892 0-7.784431-1.3231132-9.691617-3.9693396-1.907185-2.6462264-2.841317-6.7712264-2.841317-12.3360849 0-11.129717 4.437126-16.6945755 13.272455-16.6945755 4.281437 0 7.473054 1.2063679 9.57485 3.5801887 2.101797 2.3738207 3.152695 6.1485849 3.152695 11.2464622l-.272455 3.6191038h-20.94012c0 3.5023585.622755 6.1096698 1.907186 7.7830189 1.284431 1.673349 3.464072 2.5294811 6.616766 2.5294811 3.191617.0778302 6.383234-.0389151 9.652695-.3113207zm-1.712575-13.7370283c0-3.8915095-.622754-6.6544812-1.868263-8.25-1.245509-1.5955189-3.269462-2.4127359-6.071857-2.4127359s-4.943114.8561321-6.344311 2.5294811c-1.401198 1.6733491-2.140719 4.3974057-2.179641 8.1332548z"/><path d="m138 69v-46h5v46z"/><path d="m173.120713 46.2346698v15.6049528c0 1.5955189 3.879287 1.9068397 3.879287 1.9068397l-.230453 4.2028302c-3.303155 0-6.030178.2724056-7.681756-1.3231133-3.76406 1.6733491-7.489711 2.3738208-11.253772 2.3738208-2.880658 0-5.069959-.817217-6.567901-2.490566-1.497942-1.634434-2.266118-4.0082548-2.266118-7.1214623 0-3.0742925.768176-5.370283 2.304527-6.8101415s3.956104-2.3738208 7.259259-2.6851415l9.832647-.9339623v-2.7240566c0-2.1403302-.460905-3.696934-1.382716-4.6308962-.92181-.9339623-2.1893-1.4009434-3.76406-1.4009434h-12.329218v-4.2028302h12.021948c3.533608 0 6.106996.817217 7.720164 2.490566 1.651578 1.634434 2.458162 4.2417453 2.458162 7.7441038zm-19.281207 12.9198113c0 3.8915095 1.57476 5.8372642 4.762689 5.8372642 2.842249 0 5.64609-.4669811 8.373114-1.4398585l1.421124-.5058962v-10.4681604l-9.256515.8950472c-1.88203.1556603-3.226338.7004717-4.071331 1.6344339-.844993.9339623-1.229081 2.2959906-1.229081 4.0471698z"/><path d="m191.726384 40.2077922c-4.612377 0-6.957654 1.5974026-6.957654 4.8311688 0 1.4805195.547231 2.5324676 1.602606 3.1558442 1.055374.6233766 3.478827 1.2467532 7.270358 1.9090909s6.449511 1.5584416 8.013029 2.7662338c1.563518 1.1688311 2.345277 3.3896104 2.345277 6.6623376 0 3.2727273-1.055375 5.6493507-3.166124 7.1688312s-5.159609 2.2987013-9.224755 2.2987013c-2.618893 0-11.413681-.974026-11.413681-.974026l.273615-4.1298701c5.042346.4675325 8.716613.8571429 11.179153.8571429 2.462541 0 4.338763-.3896104 5.628665-1.1688312s1.954397-2.1038961 1.954397-3.935065c0-1.8311688-.547231-3.077922-1.641693-3.7402597-1.094463-.6623377-3.517916-1.2857143-7.270359-1.8701299-3.752443-.5844155-6.410423-1.4415584-7.973941-2.6103896-1.563518-1.1298701-2.345277-3.2727272-2.345277-6.3506493s1.094463-5.3766234 3.283388-6.8571429 4.925081-2.2207792 8.169381-2.2207792c2.579804 0 11.570032.6623377 11.570032.6623377v4.1688311c-4.729641-.2727272-8.599348-.6233766-11.296417-.6233766z"/><path d="m227.566075 40.8060942h-10.216963v15.1246537c0 3.6066482.276135 6.0110804.788955 7.1357341.552268 1.1246537 1.814596 1.7063712 3.82643 1.7063712l5.719921-.3878116.315582 3.9168975c-2.879684.4653739-5.04931.6980609-6.548323.6980609-3.353058 0-5.641026-.8144044-6.942801-2.4044321s-1.932939-4.6537396-1.932939-9.1523546v-16.6371191h-4.575937v-4.1108033h4.575937v-9.6952909h4.773175v9.6565097h10.216963z"/><path d="m234 29.4373357v-5.4373357h5v5.4758983zm0 38.5626643v-31.4285714h5v31.4285714z"/><path d="m259.285968 36c1.40675 0 3.790409.2724057 7.150977.7783019l1.523979.1945755-.195382 3.8525943c-3.399645-.3891509-5.900533-.5837264-7.502665-.5837264-3.595026 0-6.056838.8561321-7.346358 2.5683962-1.289521 1.7122642-1.953819 4.9033019-1.953819 9.5341981s.586145 7.8608491 1.797513 9.6898585 3.712256 2.7240566 7.541741 2.7240566l7.502664-.5837264.195382 3.9304245c-3.946714.5837264-6.916519.8950472-8.870337.8950472-4.9627 0-8.401421-1.2841981-10.277088-3.8136792-1.875666-2.5294812-2.852575-6.8101416-2.852575-12.8419812s1.015986-10.2735849 3.047957-12.6863207c2.071048-2.4127359 5.470693-3.6580189 10.238011-3.6580189z"/></g></g></svg>

<?xml version="1.0" encoding="UTF-8"?>
<svg width="400px" height="140px" viewBox="0 0 400 140" version="1.1" xmlns="http://www.w3.org/2000/svg" xmlns:xlink="http://www.w3.org/1999/xlink">
    <title>Artboard</title>
    <g id="Artboard" stroke="none" stroke-width="1" fill="none" fill-rule="evenodd">
        <g id="elastic-logo" transform="translate(66.000000, 24.000000)" fill-rule="nonzero">
            <path d="M92,48.2258065 C92,40.4940577 87.2172443,33.6994907 80.0236686,31.0831919 C80.3347422,29.4431239 80.490279,27.803056 80.490279,26.1239389 C80.490279,11.7147708 68.8250211,0 54.5156382,0 C46.1166526,0 38.339814,4.02207131 33.4404057,10.8166384 C31.0295858,8.94227504 28.0743872,7.92699491 25.0025359,7.92699491 C17.3812342,7.92699491 11.1986475,14.1358234 11.1986475,21.7894737 C11.1986475,23.4685908 11.509721,25.1086587 12.0540997,26.6315789 C4.89940828,29.2088285 0,36.1205433 0,43.8132428 C0,51.5840407 4.8216399,58.3786078 12.0152156,60.9949066 C11.704142,62.5959253 11.5486052,64.2750424 11.5486052,65.9541596 C11.5486052,80.3242784 23.1749789,92 37.4843618,92 C45.8833474,92 53.660186,87.9388795 58.5207101,81.1443124 C60.93153,83.057725 63.8867287,84.1120543 66.9585799,84.1120543 C74.5798817,84.1120543 80.7624683,77.9032258 80.7624683,70.2495756 C80.7624683,68.5704584 80.4513948,66.9303905 79.9070161,65.4074703 C87.0617075,62.8302207 92,55.9185059 92,48.2258065" id="Path" fill="#FFFFFF"></path>
            <path d="M35.9453125,39.821089 L56.1796875,49 L76.5703125,31.1866897 C76.8828125,29.7087295 77,28.2696629 77,26.7139153 C77,14.1901469 66.765625,4 54.1875,4 C46.6484375,4 39.65625,7.69490061 35.3984375,13.8789974 L32,31.4200519 L35.9453125,39.821089 Z" id="Path" fill="#FED10A"></path>
            <path d="M15.4282007,60.8141136 C15.116782,62.2857143 15,63.7960413 15,65.3450947 C15,77.8537005 25.2378893,88 37.8114187,88 C45.3633218,88 52.4091696,84.2822719 56.6522491,78.0860585 L60,60.6979346 L55.5233564,52.1781411 L35.2811419,43 L15.4282007,60.8141136 Z" id="Path" fill="#24BBB1"></path>
            <path d="M14.68,25.7130435 L28.88,29 L32,13.2304348 C30.08,11.7826087 27.68,11 25.2,11 C19.04,11 14,15.8913043 14,21.9565217 C14,23.2478261 14.24,24.5391304 14.68,25.7130435" id="Path" fill="#EF5098"></path>
            <path d="M14.4013333,29 C8.292,31.046133 4,37.027137 4,43.5983718 C4,50.0122117 7.90533333,55.7177748 13.744,58 L33,40.2930801 L29.4813333,32.6200814 L14.4013333,29 Z" id="Path" fill="#17A8E0"></path>
            <path d="M60,78.7304348 C61.8552339,80.1782609 64.0890869,81 66.3986637,81 C72.2293987,81 77,76.1086957 77,70.0434783 C77,68.7130435 76.7728285,67.4217391 76.3563474,66.2478261 L62.9532294,63 L60,78.7304348 Z" id="Path" fill="#93C83E"></path>
            <path d="M63.0551181,59.4192673 L78.4094488,63 C84.6692913,60.953867 89,54.972863 89,48.3622795 C89,41.9877883 85.023622,36.2428765 79.0787402,34 L59,51.5888738 L63.0551181,59.4192673 Z" id="Path" fill="#0779A1"></path>
            <path d="M128.964072,64.446934 L130.793413,64.2523585 L130.91018,67.9882075 C126.083832,68.6497642 121.958084,69 118.532934,69 C113.979042,69 110.748503,67.6768868 108.841317,65.0306604 C106.934132,62.384434 106,58.259434 106,52.6945755 C106,41.5648585 110.437126,36 119.272455,36 C123.553892,36 126.745509,37.2063679 128.847305,39.5801887 C130.949102,41.9540094 132,45.7287736 132,50.8266509 L131.727545,54.4457547 L110.787425,54.4457547 C110.787425,57.9481132 111.41018,60.5554245 112.694611,62.2287736 C113.979042,63.9021226 116.158683,64.7582547 119.311377,64.7582547 C122.502994,64.8360849 125.694611,64.7193396 128.964072,64.446934 Z M127.251497,50.7099057 C127.251497,46.8183962 126.628743,44.0554245 125.383234,42.4599057 C124.137725,40.8643868 122.113772,40.0471698 119.311377,40.0471698 C116.508982,40.0471698 114.368263,40.9033019 112.967066,42.5766509 C111.565868,44.25 110.826347,46.9740566 110.787425,50.7099057 L127.251497,50.7099057 Z" id="Shape" fill="#000000"></path>
            <polygon id="Path" fill="#000000" points="138 69 138 23 143 23 143 69"></polygon>
            <path d="M173.120713,46.2346698 L173.120713,61.8396226 C173.120713,63.4351415 177,63.7464623 177,63.7464623 L176.769547,67.9492925 C173.466392,67.9492925 170.739369,68.2216981 169.087791,66.6261792 C165.323731,68.2995283 161.59808,69 157.834019,69 C154.953361,69 152.76406,68.182783 151.266118,66.509434 C149.768176,64.875 149,62.5011792 149,59.3879717 C149,56.3136792 149.768176,54.0176887 151.304527,52.5778302 C152.840878,51.1379717 155.260631,50.2040094 158.563786,49.8926887 L168.396433,48.9587264 L168.396433,46.2346698 C168.396433,44.0943396 167.935528,42.5377358 167.013717,41.6037736 C166.091907,40.6698113 164.824417,40.2028302 163.249657,40.2028302 L150.920439,40.2028302 L150.920439,36 L162.942387,36 C166.475995,36 169.049383,36.817217 170.662551,38.490566 C172.314129,40.125 173.120713,42.7323113 173.120713,46.2346698 Z M153.839506,59.1544811 C153.839506,63.0459906 155.414266,64.9917453 158.602195,64.9917453 C161.444444,64.9917453 164.248285,64.5247642 166.975309,63.5518868 L168.396433,63.0459906 L168.396433,52.5778302 L159.139918,53.4728774 C157.257888,53.6285377 155.91358,54.1733491 155.068587,55.1073113 C154.223594,56.0412736 153.839506,57.4033019 153.839506,59.1544811 Z" id="Shape" fill="#000000"></path>
            <path d="M191.726384,40.2077922 C187.114007,40.2077922 184.76873,41.8051948 184.76873,45.038961 C184.76873,46.5194805 185.315961,47.5714286 186.371336,48.1948052 C187.42671,48.8181818 189.850163,49.4415584 193.641694,50.1038961 C197.433225,50.7662338 200.091205,51.6623377 201.654723,52.8701299 C203.218241,54.038961 204,56.2597403 204,59.5324675 C204,62.8051948 202.944625,65.1818182 200.833876,66.7012987 C198.723127,68.2207792 195.674267,69 191.609121,69 C188.990228,69 180.19544,68.025974 180.19544,68.025974 L180.469055,63.8961039 C185.511401,64.3636364 189.185668,64.7532468 191.648208,64.7532468 C194.110749,64.7532468 195.986971,64.3636364 197.276873,63.5844156 C198.566775,62.8051948 199.23127,61.4805195 199.23127,59.6493506 C199.23127,57.8181818 198.684039,56.5714286 197.589577,55.9090909 C196.495114,55.2467532 194.071661,54.6233766 190.319218,54.038961 C186.566775,53.4545455 183.908795,52.5974026 182.345277,51.4285714 C180.781759,50.2987013 180,48.1558442 180,45.0779221 C180,42 181.094463,39.7012987 183.283388,38.2207792 C185.472313,36.7402597 188.208469,36 191.452769,36 C194.032573,36 203.022801,36.6623377 203.022801,36.6623377 L203.022801,40.8311688 C198.29316,40.5584416 194.423453,40.2077922 191.726384,40.2077922 Z" id="Path" fill="#000000"></path>
            <path d="M227.566075,40.8060942 L217.349112,40.8060942 L217.349112,55.9307479 C217.349112,59.5373961 217.625247,61.9418283 218.138067,63.066482 C218.690335,64.1911357 219.952663,64.7728532 221.964497,64.7728532 L227.684418,64.3850416 L228,68.3019391 C225.120316,68.767313 222.95069,69 221.451677,69 C218.098619,69 215.810651,68.1855956 214.508876,66.5955679 C213.207101,65.0055402 212.575937,61.9418283 212.575937,57.4432133 L212.575937,40.8060942 L208,40.8060942 L208,36.6952909 L212.575937,36.6952909 L212.575937,27 L217.349112,27 L217.349112,36.6565097 L227.566075,36.6565097 L227.566075,40.8060942 Z" id="Path" fill="#000000"></path>
            <path d="M234,29.4373357 L234,24 L239,24 L239,29.4758983 L234,29.4373357 L234,29.4373357 Z M234,68 L234,36.5714286 L239,36.5714286 L239,68 L234,68 Z" id="Shape" fill="#000000"></path>
            <path d="M259.285968,36 C260.692718,36 263.076377,36.2724057 266.436945,36.7783019 L267.960924,36.9728774 L267.765542,40.8254717 C264.365897,40.4363208 261.865009,40.2417453 260.262877,40.2417453 C256.667851,40.2417453 254.206039,41.0978774 252.916519,42.8101415 C251.626998,44.5224057 250.9627,47.7134434 250.9627,52.3443396 C250.9627,56.9752358 251.548845,60.2051887 252.760213,62.0341981 C253.971581,63.8632075 256.472469,64.7582547 260.301954,64.7582547 L267.804618,64.1745283 L268,68.1049528 C264.053286,68.6886792 261.083481,69 259.129663,69 C254.166963,69 250.728242,67.7158019 248.852575,65.1863208 C246.976909,62.6568396 246,58.3761792 246,52.3443396 C246,46.3125 247.015986,42.0707547 249.047957,39.6580189 C251.119005,37.245283 254.51865,36 259.285968,36 Z" id="Path" fill="#000000"></path>
        </g>
    </g>
</svg>
